X:1
T:Title
L:1/8
Q:1/4=120
M:4/4
K:Ab
V:1 treble nm="Grand Piano"
V:1
 C A2 G F=E G2 | F8 | F B2 A GF A2 | G8 | G B2 =A B2 _A2 | G2 F2 =E4 | C A2 G F=E G2 | F8 | %8
w: ????~???? * * * * *||||||||
 F c2 B AGAG | F8 | F d2 c B=AB_A | G8 | G B2 =A B2 d2 | cdcB AG F2 | =E F2 G A2 B2 | G8 | %16
w: ||||||||
 F c2 B AGAG | F8 | F d2 c B=AB_A | G8 | G B2 =A B2 d2 | cdcB AG F2 | =E F2 G B2 AG | F8 |] %24
w: ||||||||

